modules/cactus-icons/svgs/payment/batch.svg

<svg xmlns="http://www.w3.org/2000/svg" width="24" height="24" viewBox="0 0 24 24">
  <path d="M3,7 L11,7 L11,3 L3,3 L3,7 Z M13,7 L22,7 C22.5522847,7 23,7.44771525 23,8 L23,22 C23,22.5522847 22.5522847,23 22,23 L2,23 C1.44771525,23 1,22.5522847 1,22 L1,8 L1,2 C1,1.44771525 1.44771525,1 2,1 L12,1 C12.5522847,1 13,1.44771525 13,2 L13,7 Z M3,9 L3,21 L21,21 L21,9 L12,9 L3,9 Z M7,14.3847143 C6.44771525,14.3847143 6,13.936999 6,13.3847143 C6,12.8324295 6.44771525,12.3847143 7,12.3847143 L17,12.3847143 C17.5522847,12.3847143 18,12.8324295 18,13.3847143 C18,13.936999 17.5522847,14.3847143 17,14.3847143 L7,14.3847143 Z"/>
</svg>

<svg width="24" height="24" viewBox="0 0 24 24" xmlns="http://www.w3.org/2000/svg">
<path d="M7 13C6.44772 13 6 13.4477 6 14C6 14.5523 6.44771 15 7 15H17C17.5523 15 18 14.5523 18 14C18 13.4477 17.5523 13 17 13H7Z M 13,2 v 5 h 9 c 0.5523,0 1,0.44772 1,1 v 14 c 0,0.5523 -0.4477,1 -1,1 H 2 C 1.44772,23 1,22.5523 1,22 V 2 C 1,1.44772 1.44772,1 2,1 h 10 c 0.5523,0 1,0.44772 1,1 z M 11,7 V 3 H 3 V 7 Z M 21,21 V 9 H 3 v 12 z"/>
</svg>
